app/dist/common/images/logwin-ag.svg

<svg height="18" viewBox="0 0 18 18" width="18" xmlns="http://www.w3.org/2000/svg"><path d="m0 0h18v18h-18z" fill="#f0f3fa"/><path d="m12 6h-6.22c-1.53 0-2.78 1.37-2.78 3.04v2.96h2v-3.48c0-.28.22-.52.48-.52h6.52z" fill="#015593"/><path d="m6 12h6.22c1.53 0 2.78-1.37 2.78-3.04v-2.96h-2v3.48c0 .28-.22.52-.48.52h-6.52z" fill="#82bf00"/></svg>

<!-- by TradingView --><svg width="18" height="18" viewBox="0 0 18 18" xmlns="http://www.w3.org/2000/svg"><path fill="#F0F3FA" d="M0 0h18v18H0z"/><path d="M12 6H5.78C4.25 6 3 7.37 3 9.04V12h2V8.52c0-.28.22-.52.48-.52H12V6Z" fill="#015593"/><path d="M6 12h6.22C13.75 12 15 10.63 15 8.96V6h-2v3.48c0 .28-.22.52-.48.52H6v2Z" fill="#82BF00"/></svg>
